X:455
T: MIT LIEB BIN ICH UMFANGEN
N: E0400
O: Europa, Mitteleuropa, Deutschland
R: Liebes - Lied
M: 4/4
L: 1/8
K: A
E2 | ABcBAGFE | F4F2
A2 | FGA2GABG | A4z2
E2 | ABcBAGFE | F4F2
A2 | FGA2GABG | A4z2
c2 | B2e2d2c2 | B4B2
e2 | d2c2B2A2 | G4z2
E2 | AB=cBA=GFE | F4F2
A2 | FGA2GABG | A4z2

@@@ Tune index: 4105
